X:43
T:Morgiana. JC.042
R:Jig
S:John Clare,Poet,Helpston. (1793-1864)
O:England
A:Northamptonshire
Z:Chris Partington.
M:6/8
L:1/8
Q:3/8=120
K:G
d|\
dBd {ga}b2a|gfed2e|dB.d gd.b|c’-b.a a-g.e|!
dBdb2a|gfed2e|d-B.d g-d.g|ba.fg2|!
|a|aba gfe|dddc’2d|b-d.d g-d.d|bd.d ” Crot”a3|!
aba gfe|eddc’2d|bd.d g-d.d|agf edc|!
BGAB2d|BGAB2d|c2eB2d|A3-Adc|!
BGAB2d|BGAB2d|e2gf2a|g3g2|]

